X:3828
T:Love Laughs At Locksmiths. HSJJ002
O:england
M:4/4
L:1/8
Q:180
S:HSJ Jackson,Wyresdale,Lancs.1823
R:Reel
A:Lancashire
H:1823
K:A
a2ec fddf|ec (d/c/B/A/) GBBg|a2ec fddf|edBe cAA2:|
|:(G/A/B/c/) dB A/B/c/d/ ec|df (d/c/B/A/) GBBd|cedf egac|d/c/B/A/ Ge cAA
2:|]


